storage/app/icons/phosphoricons/regular/bounding-box.svg

<svg xmlns="http://www.w3.org/2000/svg" fill="currentColor" viewBox="0 0 256 256"><path d="M208 96a16 16 0 0 0 16-16V48a16 16 0 0 0-16-16h-32a16 16 0 0 0-16 16v8H96v-8a16 16 0 0 0-16-16H48a16 16 0 0 0-16 16v32a16 16 0 0 0 16 16h8v64h-8a16 16 0 0 0-16 16v32a16 16 0 0 0 16 16h32a16 16 0 0 0 16-16v-8h64v8a16 16 0 0 0 16 16h32a16 16 0 0 0 16-16v-32a16 16 0 0 0-16-16h-8V96Zm-32-48h32v32h-32ZM48 48h32v15.9a.5.5 0 0 0 0 .2V80H48Zm32 160H48v-32h32v15.9a.5.5 0 0 0 0 .2zm128 0h-32v-32h32Zm-24-48h-8a16 16 0 0 0-16 16v8H96v-8a16 16 0 0 0-16-16h-8V96h8a16 16 0 0 0 16-16v-8h64v8a16 16 0 0 0 16 16h8Z"/></svg>

<svg xmlns="http://www.w3.org/2000/svg" viewBox="0 0 256 256" fill="currentColor"><path d="M208,96a16,16,0,0,0,16-16V48a16,16,0,0,0-16-16H176a16,16,0,0,0-16,16v8H96V48A16,16,0,0,0,80,32H48A16,16,0,0,0,32,48V80A16,16,0,0,0,48,96h8v64H48a16,16,0,0,0-16,16v32a16,16,0,0,0,16,16H80a16,16,0,0,0,16-16v-8h64v8a16,16,0,0,0,16,16h32a16,16,0,0,0,16-16V176a16,16,0,0,0-16-16h-8V96ZM176,48h32V80H176ZM48,48H80V63.9a.51.51,0,0,0,0,.2V80H48ZM80,208H48V176H80v15.9a.51.51,0,0,0,0,.2V208Zm128,0H176V176h32Zm-24-48h-8a16,16,0,0,0-16,16v8H96v-8a16,16,0,0,0-16-16H72V96h8A16,16,0,0,0,96,80V72h64v8a16,16,0,0,0,16,16h8Z"/></svg>
